svg/OSM-icons/craft #ff8000 °ffffff !label=encrafts,deHerstellung, Produktion/16023;craft=clockmaker;[addr];[contact];!label=enclockmaker,deUhrmacher.svg

<svg xmlns="http://www.w3.org/2000/svg" viewBox="0 0 580 580" enable-background="new 0 0 580 580"><path fill="#111" stroke="#eee" stroke-width="3.408" d="m66.28 1.768c-41.34 0-64.57 21.371-64.57 65.04v450.12c0 40.844 20.895 62.23 62.19 62.23h452.02c41.31 0 62.23-20.315 62.23-62.23v-450.12c0-42.602-20.923-65.04-63.52-65.04-.003 0-448.5-.143-448.35 0z"/><path fill="#fff" d="m290 30.29c-143.44 0-259.71 116.28-259.71 259.71s116.28 259.72 259.71 259.72 259.72-116.28 259.72-259.72-116.28-259.71-259.72-259.71m185.67 130.19l17.368 27.428-41.951 26.564-17.368-27.428 41.951-26.564m-82.51-69.47l27.941 16.53-25.283 42.736-27.94-16.53 25.282-42.736m-201.98 2.17l25.283 42.736-27.941 16.53-25.282-42.735 27.94-16.531m-82.51 69.47l41.95 26.564-17.368 27.428-41.95-26.564 17.368-27.428m3.255 247.53l-17.368-27.428 41.951-26.564 17.367 27.428-41.95 26.564m52.68-103.94h-97.39v-32.465h97.39v32.465zm29.828 173.41l-27.941-16.53 25.282-42.735 27.941 16.53-25.282 42.735m111.8 33.15h-32.464v-97.39h32.464v97.39m0-348.18h-32.464v-97.39h32.464v97.39m81.5 320.02l-25.282-42.736 27.94-16.529 25.283 42.735-27.941 16.53m82.51-69.47l-41.951-26.564 17.368-27.428 41.951 26.564-17.368 27.428m-52.852-108.92v-32.465h97.39v32.465h-97.39"/><path d="m433.19 257.04l-14.692-31.603c-.638-1.371-1.793-2.433-3.213-2.951s-2.987-.452-4.359.185l-105.23 48.922-100.46-174c-1.574-2.726-5.059-3.66-7.786-2.086l-30.18 17.426c-1.31.756-2.265 2-2.656 3.461-.391 1.46-.187 3.02.569 4.325l98.41 170.45-10.683 4.967c-1.371.638-2.433 1.793-2.951 3.213-.519 1.421-.452 2.988.185 4.359l14.693 31.603c.966 2.077 3.02 3.298 5.173 3.298.804 0 1.621-.171 2.398-.532l14.4-6.695.355.615c1.056 1.829 2.972 2.852 4.941 2.852.968 0 1.947-.247 2.845-.765l30.18-17.426c1.31-.756 2.265-2 2.656-3.461.083-.31.125-.624.154-.938l102.48-47.645c2.857-1.328 4.095-4.719 2.768-7.573"/></svg>

<?xml version="1.0" encoding="utf-8"?>
<!-- Generator: Adobe Illustrator 15.0.0, SVG Export Plug-In . SVG Version: 6.00 Build 0)  -->
<!DOCTYPE svg PUBLIC "-//W3C//DTD SVG 1.1//EN" "http://www.w3.org/Graphics/SVG/1.1/DTD/svg11.dtd">
<svg version="1.1" xmlns="http://www.w3.org/2000/svg" xmlns:xlink="http://www.w3.org/1999/xlink" x="0px" y="0px" width="580px"
	 height="580px" viewBox="0 0 580 580" enable-background="new 0 0 580 580" xml:space="preserve">
<g id="Layer_2_1_">
	<g id="Layer_2">
		<g id="g1327">
			<path id="path1329" fill="#111111" stroke="#EEEEEE" stroke-width="3.408" d="M66.275,1.768
				c-41.335,0-64.571,21.371-64.571,65.036v450.123c0,40.844,20.895,62.229,62.192,62.229h452.024
				c41.307,0,62.229-20.315,62.229-62.229V66.804c0-42.602-20.923-65.036-63.521-65.036C514.625,1.768,66.133,1.625,66.275,1.768z"
				/>
		</g>
	</g>
</g>
<g id="Layer_1">
	<g>
		<path fill="#FFFFFF" d="M290,30.285C146.563,30.285,30.285,146.563,30.285,290S146.563,549.715,290,549.715
			S549.715,433.436,549.715,290S433.436,30.285,290,30.285z M475.669,160.471l17.368,27.428l-41.951,26.564l-17.368-27.428
			L475.669,160.471z M393.16,91.001l27.941,16.53l-25.283,42.736l-27.94-16.53L393.16,91.001z M191.178,93.171l25.283,42.736
			l-27.941,16.53l-25.282-42.735L191.178,93.171z M108.671,162.641l41.95,26.564l-17.368,27.428l-41.95-26.564L108.671,162.641z
			 M111.926,410.17l-17.368-27.428l41.951-26.564l17.367,27.428L111.926,410.17z M164.606,306.232H67.214v-32.465h97.393V306.232z
			 M194.434,479.639l-27.941-16.53l25.282-42.735l27.941,16.53L194.434,479.639z M306.231,512.786h-32.464v-97.394h32.464V512.786z
			 M306.231,164.606h-32.464V67.213h32.464V164.606z M387.735,484.624l-25.282-42.736l27.94-16.529l25.283,42.735L387.735,484.624z
			 M470.244,415.153l-41.951-26.564l17.368-27.428l41.951,26.564L470.244,415.153z M417.392,306.232v-32.465h97.394v32.465H417.392z
			"/>
		<path d="M433.187,257.04l-14.692-31.603c-0.638-1.371-1.793-2.433-3.213-2.951s-2.987-0.452-4.359,0.185l-105.229,48.922
			L205.235,97.591c-1.574-2.726-5.059-3.66-7.786-2.086l-30.183,17.426c-1.31,0.756-2.265,2.001-2.656,3.461
			c-0.391,1.46-0.187,3.016,0.569,4.325l98.41,170.451l-10.683,4.967c-1.371,0.638-2.433,1.793-2.951,3.213
			c-0.519,1.421-0.452,2.988,0.185,4.359l14.693,31.603c0.966,2.077,3.023,3.298,5.173,3.298c0.804,0,1.621-0.171,2.398-0.532
			l14.4-6.695l0.355,0.615c1.056,1.829,2.972,2.852,4.941,2.852c0.968,0,1.947-0.247,2.845-0.765l30.183-17.426
			c1.31-0.756,2.265-2.001,2.656-3.461c0.083-0.31,0.125-0.624,0.154-0.938l102.481-47.645
			C433.276,263.285,434.514,259.894,433.187,257.04z"/>
	</g>
</g>
</svg>
